Interior Design/images/socials/linkedin.svg

<svg width="40" height="40" viewBox="0 0 40 40" fill="none" xmlns="http://www.w3.org/2000/svg">
<path d="M20 0C8.95599 0 0 8.95599 0 20C0 31.044 8.95599 40 20 40C31.044 40 40 31.044 40 20C40 8.95599 31.044 0 20 0ZM14.1882 30.2344H9.31732V15.5801H14.1882V30.2344ZM11.7529 13.5791H11.7212C10.0867 13.5791 9.02954 12.4539 9.02954 11.0477C9.02954 9.60968 10.119 8.51562 11.7853 8.51562C13.4515 8.51562 14.4769 9.60968 14.5087 11.0477C14.5087 12.4539 13.4515 13.5791 11.7529 13.5791ZM31.7517 30.2344H26.8814V22.3947C26.8814 20.4245 26.1761 19.0808 24.4138 19.0808C23.0682 19.0808 22.2668 19.9872 21.9147 20.8621C21.7859 21.1752 21.7545 21.6129 21.7545 22.0508V30.2344H16.8839C16.8839 30.2344 16.9476 16.955 16.8839 15.5801H21.7545V17.655C22.4017 16.6565 23.5599 15.2362 26.1441 15.2362C29.3488 15.2362 31.7517 17.3306 31.7517 21.8317V30.2344Z" fill="white"/>
</svg>

<svg width="40" height="40" fill="none" xmlns="http://www.w3.org/2000/svg"><path d="M20 0C8.956 0 0 8.956 0 20s8.956 20 20 20 20-8.956 20-20S31.044 0 20 0zm-5.812 30.234h-4.87V15.58h4.87v14.654zM11.753 13.58h-.032c-1.634 0-2.691-1.125-2.691-2.531 0-1.438 1.089-2.532 2.755-2.532s2.692 1.094 2.724 2.532c0 1.406-1.058 2.531-2.756 2.531zm19.999 16.655h-4.87v-7.84c0-1.97-.706-3.313-2.468-3.313-1.346 0-2.147.906-2.5 1.781-.128.313-.16.75-.16 1.189v8.183h-4.87s.064-13.279 0-14.654h4.87v2.075c.648-.998 1.806-2.419 4.39-2.419 3.205 0 5.608 2.095 5.608 6.596v8.402z"/></svg>
